icons/lightbulb-line.svg

<svg xmlns="http://www.w3.org/2000/svg" width="24" height="24" fill="none"><g clip-path="url(#a)"><g><path fill="#121212" d="M9.97302 18H11V13H13V18H14.027C14.159 16.798 14.772 15.806 15.767 14.723C15.88 14.601 16.599 13.856 16.684 13.75C17.3903 12.8676 17.833 11.8037 17.9611 10.6808C18.0893 9.55783 17.8976 8.42153 17.4083 7.40274C16.9189 6.38394 16.1518 5.52408 15.1951 4.92217C14.2385 4.32027 13.1313 4.0008 12.0011 4.00056C10.8709 4.00032 9.76356 4.31931 8.80668 4.92081C7.8498 5.52231 7.08227 6.38184 6.59248 7.40043C6.10269 8.41901 5.91056 9.55523 6.03821 10.6782C6.16587 11.8012 6.60811 12.8653 7.31402 13.748C7.40002 13.855 8.12102 14.601 8.23202 14.722C9.22802 15.806 9.84102 16.798 9.97302 18ZM10 20V21H14V20H10ZM5.75402 15C4.81221 13.8233 4.22197 12.4045 4.05129 10.907C3.8806 9.40946 4.13642 7.89421 4.78927 6.53574C5.44213 5.17728 6.46546 4.03087 7.74138 3.22858C9.0173 2.42629 10.4939 2.00076 12.0011 2.001C13.5083 2.00124 14.9848 2.42725 16.2604 3.22995C17.5361 4.03264 18.5591 5.17938 19.2115 6.53805C19.8639 7.89672 20.1192 9.41206 19.9481 10.9095C19.7769 12.407 19.1862 13.8256 18.244 15.002C17.624 15.774 16 17 16 18.5V21C16 21.5304 15.7893 22.0391 15.4142 22.4142C15.0392 22.7893 14.5305 23 14 23H10C9.46959 23 8.96088 22.7893 8.58581 22.4142C8.21073 22.0391 8.00002 21.5304 8.00002 21V18.5C8.00002 17 6.37502 15.774 5.75402 15Z"/></g></g><defs><clipPath id="a"><rect width="24" height="24" fill="white"/></clipPath></defs></svg>

<svg width="24" height="24" fill="none" xmlns="http://www.w3.org/2000/svg"><g clip-path="url(#a)"><path d="M9.973 18H11v-5h2v5h1.027c.132-1.202.745-2.194 1.74-3.277.113-.122.832-.867.917-.973a6 6 0 1 0-9.37-.002c.086.107.807.853.918.974.996 1.084 1.609 2.076 1.741 3.278ZM10 20v1h4v-1h-4Zm-4.246-5a8 8 0 1 1 12.49.002C17.624 15.774 16 17 16 18.5V21a2 2 0 0 1-2 2h-4a2 2 0 0 1-2-2v-2.5C8 17 6.375 15.774 5.754 15Z" /></g><defs><clipPath id="a"><path fill="#fff" d="M0 0h24v24H0z"/></clipPath></defs></svg>
